icons/cloudy-storm.svg

<svg width="24" height="24" viewBox="0 0 24 24" fill="none" xmlns="http://www.w3.org/2000/svg">
<path fill-rule="evenodd" clip-rule="evenodd" d="M13.1449 5.09161C12.4733 4.97131 11.7808 4.96947 11.1084 5.08622C10.4359 5.20298 9.80103 5.43526 9.23946 5.76583C8.10447 6.43396 7.35179 7.45136 7.09763 8.56696C6.99395 9.02201 6.58931 9.34483 6.12261 9.34483C5.01072 9.34483 3.95543 9.76164 3.18622 10.4865C2.41902 11.2096 2 12.1771 2 13.1724C2 14.1678 2.41902 15.1353 3.18622 15.8583C3.95543 16.5832 5.01072 17 6.12261 17H7C7.55228 17 8 17.4477 8 18C8 18.5523 7.55228 19 7 19H6.12261C4.5173 19 2.96668 18.3996 1.81454 17.3138C0.660383 16.2261 0 14.7378 0 13.1724C0 11.6071 0.660383 10.1187 1.81454 9.03104C2.78417 8.11725 4.03604 7.54723 5.36521 7.38957C5.87515 6.0047 6.8898 4.8282 8.22487 4.04229C9.0002 3.58588 9.86392 3.27237 10.7663 3.1157C11.6686 2.95904 12.5962 2.96149 13.4975 3.12295C14.3989 3.28441 15.2606 3.60253 16.0331 4.06317C16.8057 4.52387 17.4764 5.11979 18.002 5.8219C18.528 6.5244 18.8977 7.31882 19.0837 8.16095C19.1806 8.59971 19.2262 9.04534 19.2206 9.49053C20.4805 9.49871 21.6898 9.99521 22.5856 10.8778C23.4895 11.7683 24 12.9793 24 14.2452C24 15.5111 23.4895 16.7221 22.5856 17.6126C21.6823 18.5026 20.4602 19 19.189 19H18C17.4477 19 17 18.5523 17 18C17 17.4477 17.4477 17 18 17H19.189C19.9393 17 20.6559 16.7062 21.1819 16.1879C21.7075 15.6701 22 14.971 22 14.2452C22 13.5194 21.7075 12.8203 21.1819 12.3025C20.6559 11.7842 19.9393 11.4904 19.189 11.4904H18.1001C17.7959 11.4904 17.5082 11.3519 17.3184 11.1141C17.1287 10.8762 17.0575 10.5649 17.1251 10.2683C17.2512 9.7149 17.2531 9.14612 17.1308 8.59221C17.0084 8.03795 16.7626 7.50351 16.401 7.02055C16.0392 6.5372 15.5677 6.11428 15.0087 5.78093C14.4496 5.4475 13.8164 5.21191 13.1449 5.09161ZM13.4472 12.1056C13.9412 12.3526 14.1414 12.9532 13.8944 13.4472L12.618 16H14C14.3466 16 14.6684 16.1795 14.8507 16.4743C15.0329 16.7691 15.0494 17.1372 14.8944 17.4472L12.8944 21.4472C12.6474 21.9412 12.0468 22.1414 11.5528 21.8944C11.0588 21.6474 10.8586 21.0468 11.1056 20.5528L12.382 18H11C10.6534 18 10.3316 17.8205 10.1493 17.5257C9.96714 17.2309 9.95058 16.8628 10.1056 16.5528L12.1056 12.5528C12.3526 12.0588 12.9532 11.8586 13.4472 12.1056Z" fill="black"/>
</svg>

<svg
  width="24"
  height="24"
  viewBox="0 0 24 24"
  xmlns="http://www.w3.org/2000/svg"
>
  <path
    fill-rule="evenodd"
    clip-rule="evenodd"
    d="M13.145 5.092a5.876 5.876 0 0 0-2.037-.006 5.563 5.563 0 0 0-1.869.68c-1.135.668-1.887 1.685-2.141 2.801a1 1 0 0 1-.975.778 4.286 4.286 0 0 0-2.937 1.141C2.42 11.21 2 12.178 2 13.172c0 .996.419 1.963 1.186 2.686A4.286 4.286 0 0 0 6.123 17H7a1 1 0 1 1 0 2h-.877c-1.606 0-3.156-.6-4.308-1.686C.66 16.226 0 14.738 0 13.172c0-1.565.66-3.053 1.815-4.141a6.25 6.25 0 0 1 3.55-1.641c.51-1.385 1.525-2.562 2.86-3.348a7.563 7.563 0 0 1 2.541-.926 7.876 7.876 0 0 1 2.732.007c.9.161 1.763.48 2.535.94a6.806 6.806 0 0 1 1.969 1.759 6.097 6.097 0 0 1 1.082 2.339c.097.439.142.884.137 1.33a4.84 4.84 0 0 1 3.365 1.387A4.727 4.727 0 0 1 24 14.245c0 1.266-.51 2.477-1.414 3.368A4.84 4.84 0 0 1 19.189 19H18a1 1 0 1 1 0-2h1.189a2.84 2.84 0 0 0 1.993-.812A2.727 2.727 0 0 0 22 14.245c0-.726-.293-1.425-.818-1.942a2.84 2.84 0 0 0-1.993-.813H18.1a1 1 0 0 1-.975-1.222 3.816 3.816 0 0 0 .006-1.676 4.098 4.098 0 0 0-.73-1.571 4.808 4.808 0 0 0-1.392-1.24 5.554 5.554 0 0 0-1.864-.69zm.302 7.014a1 1 0 0 1 .447 1.341L12.618 16H14a1 1 0 0 1 .894 1.447l-2 4a1 1 0 1 1-1.788-.894L12.382 18H11a1 1 0 0 1-.894-1.447l2-4a1 1 0 0 1 1.341-.447z"
  />
</svg>
